X:769
T:On the Old Fall River Line
C:Harry Von Tilzer (1872 - 1946)
L:1/4
M:2/2
R:Reel
S:Colin Hume's website,  colinhume.com  - chords can also be printed below the stave.
Q:1/2=112
%%MIDI ratio 3 1
K:G
B/>A/ | "G"GE D<B, | D2 zB/>A/ | GE D<B, | D2 zD |\
"G"GG GA | "Em"BB BG | "A7"BA AB | "D"A2 zB/>A/ |
"G"GE D<B, | DD zG/>A/ | "G7"BB AB | "C"E2 zG/>A/ |\
"G"BD DG/>A/ | BD DD/>D/ | "A7"EG "D"A<F | "G"G3 |]

